X: 2
T: Tim Maloney's
R: reel
M: 4/4
L: 1/8
K: Gmaj
|:DG G3 Bd d2|dedB gedB|G2 BG dGBG| c2 Bc AGEG|
DG G2 Bd d2|dedB d2 gf|e3d Bdef|gedB AGEG:|
|:dg3 bg3|dB B2 d2 ef|g2 bg abge|d2 BG AGEG|
dg3 bg3|dB B2 d2 gf|e3d Bdef|gedB AGEG:|


Tune 621	Setting 28242

